src/images/icons/email-gray.svg

<svg width="18" height="18" viewBox="0 0 18 18" fill="none" xmlns="http://www.w3.org/2000/svg">
<g id="Email">
<path id="Union" fill-rule="evenodd" clip-rule="evenodd" d="M5.76667 2.25H5.73499H5.73498C5.01514 2.24999 4.42947 2.24999 3.95413 2.28882C3.46308 2.32894 3.0241 2.41422 2.61553 2.6224C1.97265 2.94996 1.44996 3.47265 1.1224 4.11553C0.91422 4.5241 0.828943 4.96308 0.788823 5.45413C0.749986 5.92947 0.749992 6.51514 0.75 7.23498V7.23499V7.26667V10.7333V10.765V10.765C0.749992 11.4849 0.749986 12.0705 0.788823 12.5459C0.828943 13.0369 0.91422 13.4759 1.1224 13.8845C1.44996 14.5274 1.97265 15.05 2.61553 15.3776C3.0241 15.5858 3.46308 15.6711 3.95413 15.7112C4.42947 15.75 5.01514 15.75 5.73498 15.75H5.76667H12.2333H12.265C12.9849 15.75 13.5705 15.75 14.0459 15.7112C14.5369 15.6711 14.9759 15.5858 15.3845 15.3776C16.0274 15.05 16.55 14.5274 16.8776 13.8845C17.0858 13.4759 17.1711 13.0369 17.2112 12.5459C17.25 12.0705 17.25 11.4849 17.25 10.765V10.7333V7.26667V7.23498C17.25 6.51514 17.25 5.92947 17.2112 5.45413C17.1711 4.96308 17.0858 4.5241 16.8776 4.11553C16.55 3.47265 16.0274 2.94996 15.3845 2.6224C14.9759 2.41422 14.5369 2.32894 14.0459 2.28882C13.5705 2.24999 12.9849 2.24999 12.265 2.25H12.265H12.2333H5.76667ZM3.29652 3.9589C3.45838 3.87643 3.67799 3.81638 4.07628 3.78384C4.48333 3.75058 5.00756 3.75 5.76667 3.75H12.2333C12.9924 3.75 13.5167 3.75058 13.9237 3.78384C14.322 3.81638 14.5416 3.87643 14.7035 3.9589C15.0641 4.14266 15.3573 4.43587 15.5411 4.79652C15.6236 4.95838 15.6836 5.17799 15.7162 5.57628C15.7494 5.98333 15.75 6.50756 15.75 7.26667V10.7333C15.75 11.4924 15.7494 12.0167 15.7162 12.4237C15.6836 12.822 15.6236 13.0416 15.5411 13.2035C15.3573 13.5641 15.0641 13.8573 14.7035 14.0411C14.5416 14.1236 14.322 14.1836 13.9237 14.2162C13.5167 14.2494 12.9924 14.25 12.2333 14.25H5.76667C5.00756 14.25 4.48333 14.2494 4.07628 14.2162C3.67799 14.1836 3.45838 14.1236 3.29652 14.0411C2.93587 13.8573 2.64266 13.5641 2.4589 13.2035C2.37643 13.0416 2.31638 12.822 2.28384 12.4237C2.25058 12.0167 2.25 11.4924 2.25 10.7333V7.26667C2.25 6.50756 2.25058 5.98333 2.28384 5.57628C2.31638 5.17799 2.37643 4.95838 2.4589 4.79652C2.64266 4.43587 2.93587 4.14266 3.29652 3.9589ZM4.91603 5.37596C4.57138 5.1462 4.10573 5.23933 3.87596 5.58398C3.6462 5.92862 3.73933 6.39427 4.08398 6.62404L8.58398 9.62404C8.8359 9.79199 9.1641 9.79199 9.41603 9.62404L13.916 6.62404C14.2607 6.39427 14.3538 5.92862 14.124 5.58398C13.8943 5.23933 13.4286 5.1462 13.084 5.37596L9 8.09861L4.91603 5.37596Z" fill="#8FA4B3"/>
</g>
</svg>

<svg width="18" height="18" fill="none" xmlns="http://www.w3.org/2000/svg"><path fill-rule="evenodd" clip-rule="evenodd" d="M5.767 2.25h-.032c-.72 0-1.306 0-1.78.039-.492.04-.93.125-1.34.333a3.417 3.417 0 0 0-1.493 1.494C.914 4.524.83 4.963.79 5.454.75 5.93.75 6.515.75 7.235v3.53c0 .72 0 1.305.039 1.78.04.492.125.93.333 1.34.328.642.85 1.165 1.494 1.493.408.208.847.293 1.338.333.475.039 1.061.039 1.781.039h6.53c.72 0 1.305 0 1.78-.039.492-.04.93-.125 1.34-.333a3.417 3.417 0 0 0 1.493-1.494c.208-.408.293-.847.333-1.338.039-.476.039-1.061.039-1.781v-3.53c0-.72 0-1.306-.039-1.78-.04-.492-.125-.93-.333-1.34a3.417 3.417 0 0 0-1.494-1.493c-.408-.208-.847-.293-1.338-.333-.476-.039-1.061-.039-1.781-.039H5.767Zm-2.47 1.709c.161-.083.381-.143.78-.175.406-.033.93-.034 1.69-.034h6.466c.76 0 1.284 0 1.69.034.399.032.619.092.78.175.361.184.654.477.838.838.083.161.143.381.175.78.033.406.034.93.034 1.69v3.466c0 .76 0 1.284-.034 1.69-.032.399-.092.619-.175.78a1.917 1.917 0 0 1-.838.838c-.161.083-.381.143-.78.175-.406.033-.93.034-1.69.034H5.767c-.76 0-1.284 0-1.69-.034-.399-.032-.619-.092-.78-.175a1.917 1.917 0 0 1-.838-.838c-.083-.161-.143-.381-.175-.78-.033-.406-.034-.93-.034-1.69V7.267c0-.76 0-1.284.034-1.69.032-.399.092-.619.175-.78.184-.361.477-.654.838-.838Zm1.619 1.417a.75.75 0 0 0-.832 1.248l4.5 3a.75.75 0 0 0 .832 0l4.5-3a.75.75 0 1 0-.832-1.248L9 8.099 4.916 5.376Z" fill="#8FA4B3"/></svg>
